X: 11008
T: Drunken Sailor's, The
R: hornpipe
M: 4/4
K: Gminor
GF|"1"DG{A}GF GABc|dg{a}g^f gabg|fdbg f=edc|BGEC G,B,EF|
G2 {A}GF GABG|D=E{G}FE FB,DF|GABc dcAc|{Bc}B2 G2 G2 (3DEF||"2"~G3 A ~B3 c|
dg ~g2 dgbg|fdbg f=edc|BcAF GFDC|DG (3GGG cGBG|DF{G}F=E FGAF|
GABc dcAc|(3BdB G2 G2 z2||"3"gfdf gabg|gfdc GF D2|~B3 c ~d3 =e|
fcdB AGFD|G,CDG G,CDG|G,B,DG FAGD|GABG EFGE|CDEC A,D G,2-||
"4"G,A,B,D GABc|dg{a}gf gabg|fdbg f=edc|~B3 A GFDC|DG (3GGG cGBG|
DF{G}F=E FGA^F|GABc dcAc|(3BdB G2 G2 (3DEF||"5"G3 A B3 c|dg g2 dgbg|
fdbg f=edc|BGEC G,B,EF|(G2 {A}G)F GABG|D=E{G}FE FB,DF|GABc dcAc|
(3BcB G2 G2 z2||"6"gfdf gabg|gfdc GF D2|~B3 c ~d3 =e|fcdB AGFD|
G,2 GF GABG|D=EFE FB,DF|GABG EFGE|CDEC A,D G,2||"7"G2 GF GABc|
dcBA GFD=E|F2 F=E FGAB|cAFA dcBA|GDB,D GABc|dcBA GFD=E|
FGgf dcBA|(3BcB G2 G2 z2||"8"{A}B2 BA Bcd=e|fcAB cAFG|AFcF dFcF|
AFcF dcBA|B2 BA Bcd=e|fcAB cAFA|GAgf dcBA|(3BcB G2 G2 z2||
"9"B2 BA Bcd=e|fcAB cAFA|AFcF dFcF|AFcF dcBA|B2 BA Bcd=e|
fcAB cAFA|GAgf dcBA|(3BcB G2 G2 Bd||"1
"gfga g2 fg|agf=e d2 de|
fcgc acgc|fcgc agf=e|dg (3gfg dgbg|agf=e dFAc|df=eg fdcA|
(3BcB G2 GABd||"11"g2 gf g2 {a}gf|gabg gfd=e|fcgc acgc|fcgc agf=e|
dg ~g2 dgbg|agf=e dFAc|df=eg fdcA|(3BcB G2 GDEF||"12"GBdB GBdB|
FAcA FAcD|(3FGA Bc dcAA|cBGD C^FAF|GBdB GBdB|(3cdc A^F DA,B,D|
df=eg fdcA|(3BdB G2 GDEF||"13"GBdB GBdB|FAcA FAcd|(3FGA Bc dcAD|
cBGD C^FAF|GBdB GBdB|(3cdc A^F DA,B,D|df=eg fdcA|(3BdB G2 G2 g/a/g/f/||
"14"gdgb gdgb|fcfa fcfa|gdgb gdbg|fdcA BGEC|G,B,DG B,DGF|
DGBG FAcA|df=eg fdcA|G2 DB, G,2 z2||"15"gdgb gdgb|fcfa fcfa|
gdga b2 ag|fdcA dBcA|BGDG AFDA|BDGD EAcA|(3Bcd =eg fdcA|
G2 DB, G,2 D/D/D/D/||"16"DGAd DGAd|DFAd DFAd|DGBd DGBd|dedc ADFA|
GBdB GBdB|(3cdc AF DA,B,D|df=eg fdcA|(3BcB G2 G3 D||
"17"DGBd DGBd|DFAc DFAc|DGBd DGBd|dedc ADFA|
GBdB GBdB|(3cdc AF DA,B,D|df=eg fdcA|G2 DB, HG,4||

